X:5
T:Walzer  EbAb (5letras) cf. CF oct
M:3/4
L:1/4
K:Ebmaj%%MIDI gchordon
"Eb"GG/2G/2 G/2G/2 | GBe | GG/2G/2 G/2G/2 | GBe | GBe | GBe | "Bb7"B3 | Azz | FF/2F/2 F/2F/2 | 
FBd | FF/2F/2 F/2F/2 | FBd | B3 | A3 | "Eb"GBe | Gz/2B/2 c/2d/2 || "Eb"edc | B>GB | "Bb7"TBAA | 
"Eb"G3 | edc | B>GB | "Ab"c/2c/2c"Bb7"d | "Eb"ezz || [K:Abmaj] "Ab"c3 | ced | c3 | cBA | "Eb7"Ged | 
Ged | "Ab"c3 | "Eb7"dzz | "Ab"c3 | ced | c3 | cBA | "Eb7"Gfe | d/2B/2cG | "Ab"A>AA | Azz |] 

